assets/img/logo-error.svg

<svg width="1024" height="1024" xmlns="http://www.w3.org/2000/svg"><path fill="#fff" d="M0 0h1024v1024H0z"/><path d="M517.4 600.385c6.734.789 13.648 2.305 19.72 4.307 15.941 5.169 12.133 12.562 3.402 18.307-3.187 2.097-7.031 3.989-10.835 5.862-6.919 3.407-13.706 6.748-16.165 11.138-1.946 3.522-.931 20.011-.358 29.336.118 1.915.217 3.527.269 4.664.807 15.876 18.754 27.023 35.59 27.316 5.155.061 8.251-3.523 11.202-6.941 2.666-3.088 5.215-6.039 9.058-6.039 3.848 0 4.93 4.974 2.285 10.554-1.683 3.518-6.613 8.006-11.423 10.433-7.575 3.76-15.39 3.578-25.069-.668-7.335-3.154-14.489-8.37-21.643-15.649-5.02-6.746-7.822-6.806-12.844.002-7.154 7.278-14.308 12.495-21.643 15.649-9.679 4.245-17.495 4.427-25.07.667-4.809-2.426-9.739-6.915-11.422-10.433-2.646-5.58-1.563-10.554 2.284-10.554 3.844 0 6.392 2.951 9.059 6.04 2.951 3.417 6.046 7.002 11.201 6.94 16.837-.293 34.784-11.44 35.591-27.316.051-1.136.15-2.749.268-4.664.574-9.325 1.588-25.813-.357-29.336-2.459-4.389-9.246-7.731-16.166-11.138-3.803-1.872-7.647-3.765-10.834-5.862-8.731-5.745-12.54-13.137 3.402-18.307 6.072-2.002 12.986-3.518 19.719-4.307 6.758-.72 14.027-.721 20.779-.001zM83 506c0 97.754 75.664 177 169 177s169-79.246 169-177-75.664-177-169-177S83 408.246 83 506z"/><path d="M252 717c-8.033 0-14.24-2.196-18.622-6.588-4.381-4.575-6.572-10.889-6.572-18.941V562.176h-42.994c-6.755 0-11.958-1.738-15.609-5.215-3.469-3.66-5.203-8.785-5.203-15.373 0-6.771 1.734-11.895 5.203-15.372 3.651-3.477 8.854-5.216 15.609-5.216h136.376c6.755 0 11.866 1.739 15.335 5.216 3.651 3.477 5.477 8.601 5.477 15.372 0 6.588-1.826 11.713-5.477 15.373-3.469 3.477-8.58 5.215-15.335 5.215h-42.994v129.295c0 8.052-2.1 14.366-6.299 18.941C266.696 714.804 260.398 717 252 717z" fill="#fff"/><path d="M596 506c0 97.754 75.664 177 169 177s169-79.246 169-177-75.664-177-169-177-169 79.246-169 177z"/><path d="M765 717c-8.033 0-14.24-2.196-18.622-6.588-4.381-4.575-6.572-10.889-6.572-18.941V562.176h-42.994c-6.755 0-11.958-1.738-15.609-5.215-3.469-3.66-5.203-8.785-5.203-15.373 0-6.771 1.734-11.895 5.203-15.372 3.651-3.477 8.854-5.216 15.609-5.216h136.376c6.755 0 11.866 1.739 15.335 5.216 3.651 3.477 5.477 8.601 5.477 15.372 0 6.588-1.826 11.713-5.477 15.373-3.469 3.477-8.58 5.215-15.335 5.215h-42.994v129.295c0 8.052-2.1 14.366-6.299 18.941C779.696 714.804 773.398 717 765 717z" fill="#fff"/><path d="M771.5 34L770 293.016M806.74 8L805 267.017M842.692 30l-1.739 259.017M872.846 70l-1.739 259.017M903 30l-1.779 259.017M934 8l-1.5 259.016" stroke="#000" stroke-width="15" stroke-linecap="round"/></svg>

<svg width="1024" height="1024" viewBox="0 0 1024 1024" fill="none" xmlns="http://www.w3.org/2000/svg">
<g clip-path="url(#clip0_104_18)">
<rect width="1024" height="1024" fill="white"/>
<path d="M517.4 600.385C524.134 601.174 531.048 602.69 537.12 604.692C553.061 609.861 549.253 617.254 540.522 622.999C537.335 625.096 533.491 626.988 529.687 628.861C522.768 632.268 515.981 635.609 513.522 639.999C511.576 643.521 512.591 660.01 513.164 669.335C513.282 671.25 513.381 672.862 513.433 673.999C514.24 689.875 532.187 701.022 549.023 701.315C554.178 701.376 557.274 697.792 560.225 694.374C562.891 691.286 565.44 688.335 569.283 688.335C573.131 688.335 574.213 693.309 571.568 698.889C569.885 702.407 564.955 706.895 560.145 709.322C552.57 713.082 544.755 712.9 535.076 708.654C527.741 705.5 520.587 700.284 513.433 693.005C508.413 686.259 505.611 686.199 500.589 693.007C493.435 700.285 486.281 705.502 478.946 708.656C469.267 712.901 461.451 713.083 453.876 709.323C449.067 706.897 444.137 702.408 442.454 698.89C439.808 693.31 440.891 688.336 444.738 688.336C448.582 688.336 451.13 691.287 453.797 694.376C456.748 697.793 459.843 701.378 464.998 701.316C481.835 701.023 499.782 689.876 500.589 674C500.64 672.864 500.739 671.251 500.857 669.336C501.431 660.011 502.445 643.523 500.5 640C498.041 635.611 491.254 632.269 484.334 628.862C480.531 626.99 476.687 625.097 473.5 623C464.769 617.255 460.96 609.863 476.902 604.693C482.974 602.691 489.888 601.175 496.621 600.386C503.379 599.666 510.648 599.665 517.4 600.385Z" fill="black"/>
<path d="M83 506C83 603.754 158.664 683 252 683C345.336 683 421 603.754 421 506C421 408.246 345.336 329 252 329C158.664 329 83 408.246 83 506Z" fill="black"/>
<path d="M252 717C243.967 717 237.76 714.804 233.378 710.412C228.997 705.837 226.806 699.523 226.806 691.471V562.176H183.812C177.057 562.176 171.854 560.438 168.203 556.961C164.734 553.301 163 548.176 163 541.588C163 534.817 164.734 529.693 168.203 526.216C171.854 522.739 177.057 521 183.812 521H320.188C326.943 521 332.054 522.739 335.523 526.216C339.174 529.693 341 534.817 341 541.588C341 548.176 339.174 553.301 335.523 556.961C332.054 560.438 326.943 562.176 320.188 562.176H277.194V691.471C277.194 699.523 275.094 705.837 270.895 710.412C266.696 714.804 260.398 717 252 717Z" fill="white"/>
<path d="M596 506C596 603.754 671.664 683 765 683C858.336 683 934 603.754 934 506C934 408.246 858.336 329 765 329C671.664 329 596 408.246 596 506Z" fill="black"/>
<path d="M765 717C756.967 717 750.76 714.804 746.378 710.412C741.997 705.837 739.806 699.523 739.806 691.471V562.176H696.812C690.057 562.176 684.854 560.438 681.203 556.961C677.734 553.301 676 548.176 676 541.588C676 534.817 677.734 529.693 681.203 526.216C684.854 522.739 690.057 521 696.812 521H833.188C839.943 521 845.054 522.739 848.523 526.216C852.174 529.693 854 534.817 854 541.588C854 548.176 852.174 553.301 848.523 556.961C845.054 560.438 839.943 562.176 833.188 562.176H790.194V691.471C790.194 699.523 788.094 705.837 783.895 710.412C779.696 714.804 773.398 717 765 717Z" fill="white"/>
<path d="M771.5 34L770 293.016" stroke="black" stroke-width="15" stroke-linecap="round"/>
<path d="M806.74 8L805 267.017" stroke="black" stroke-width="15" stroke-linecap="round"/>
<path d="M842.692 30L840.953 289.017" stroke="black" stroke-width="15" stroke-linecap="round"/>
<path d="M872.846 70L871.107 329.017" stroke="black" stroke-width="15" stroke-linecap="round"/>
<path d="M903 30L901.221 289.017" stroke="black" stroke-width="15" stroke-linecap="round"/>
<path d="M934 8L932.5 267.016" stroke="black" stroke-width="15" stroke-linecap="round"/>
</g>
<defs>
<clipPath id="clip0_104_18">
<rect width="1024" height="1024" fill="white"/>
</clipPath>
</defs>
</svg>
